X:1
T:We Know He’s Coming
T:We Know He’s Coming
T:John R. Bryant
T:John R. Bryant, 1904
T:Public Domain Courtesy of the Cyber Hymnal™
T:Public Domain Courtesy of the Cyber Hymnal™
C:John R. Bryant
Z:Public Domain
Z:Courtesy of the Cyber Hymnal™
%%score ( 1 2 ) ( 3 4 )
L:1/8
Q:1/4=102
M:4/4
K:C
V:1 treble 
V:2 treble 
V:3 bass 
V:4 bass 
V:1
 [EG]2 | [EG]3 [^D^F] [=FA][EG][CE][EG] | [Ec]6 [Gc]2 | [Fc]3 [FB] [Fd][Fc][GB][FA] | [EG]6 [EG]2 | %5
w: 1.~O|long- ing soul, be not dis-|mayed, Thou|shalt see Je- sus from on|high; E’en|
w: 2.~The|cloud that hides the Sav- ior’s|face, And|wraps the earth in dark- est|night, Shall|
w: 3.~He’ll|bring our loved ones back when|He Shall|in His glo- ry come a-|gain; We’ll|
w: 4.~Then|watch and wait till He shall|come, For|our re- demp- tion then shall|be; Then|
 [EG]3 [^D^F] [=FA][EG][CE][EG] | [Ec]6 [Gc]2 | [Fd]3 [Ec] [Ge][Fd][Ec][DB] | [Ec]6 || %9
w: tho’ His com- ing be de-|layed, He’s|sure- ly com- ing by and|by.|
w: roll a- way, and in its|place Shall|dawn a glor- ious morn- ing|light.|
w: be with them e- ter- nal-|ly, And|with our Sav- ior too shall|reign.|
w: He’ll re- ceive us in that|home, That|home that lasts e- ter- nal-|ly.|
"^Refrain" [EG]2 | e6 [Gc]2 | [Ac][Ad][Ac][FA] [EG]2 [EG]2 | F6 [DG]2 | %13
w: ||||
w: We|know He’s|com- ing by and by; We|know He’s|
w: ||||
w: ||||
 [GB][FA][EG][DF] [CE]2 [EG][EG] | [FA]2 [^FA][FA] [GB]2 [^GB][GB] | [Ac][Ec][Ec][Ec] [Gd]2 [Gf]2 | %16
w: |||
w: com- ing by and by; In the|clouds of His love, He is|com- ing from a- bove, We|
w: |||
w: |||
 [Ge]2 [Fd]2 [Ec][Ec][DB][DB] | [Ec]6 |] %18
w: ||
w: know He’s com- ing by and|by.|
w: ||
w: ||
V:2
 x2 | x8 | x8 | x8 | x8 | x8 | x8 | x8 | x6 || x2 | (G2 GG G2) x2 | x8 | (D2 DD D2) x2 | x8 | x8 | %15
 x8 | x8 | x6 |] %18
V:3
 [C,C]2 | [C,C]3 [C,C] [C,C][C,C][C,G,][C,G,] | [C,G,]6 [E,_B,]2 | %3
w: ~|~ ~ ~ ~ ~ ~|~ ~|
 [F,A,]3 [F,A,] [F,A,][F,A,][F,C][F,C] | [C,C]6 [C,C]2 | [C,C]3 [C,C] [C,C][C,C][C,G,][C,G,] | %6
w: ~ ~ ~ ~ ~ ~|~ ~|~ ~ ~ ~ ~ ~|
 [C,G,]6 [E,C]2 | [G,B,]3 [G,C] [G,C][G,B,][G,,C][G,,G,] | [C,G,]6 || [C,C]2 | %10
w: ~ ~|~ ~ ~ ~ ~ ~|~|We|
 [C,C]2 [C,C][C,C] [C,C]2 [E,C]2 | [F,C][F,C][F,C][F,C] [C,C]2 [C,C]2 | %12
w: know, sure- ly know, ~|~ ~ ~ ~ ~ We|
 [G,,B,]2 [G,,B,][G,,B,] [G,,B,]2 [G,,B,]2 | [G,,G,][G,,A,][G,,B,][G,,A,] [C,G,]2 [C,C][C,C] | %14
w: know, sure- ly know, *||
 [F,C]2 [D,D][D,D] [G,D]2 [E,D][E,D] | [A,C]A,A,A, [G,B,]2 [G,B,]2 | %16
w: ||
 C2 [F,A,]2 G,G,[G,,G,][G,,G,] | [C,G,]6 |] %18
w: ||
V:4
 x2 | x8 | x8 | x8 | x8 | x8 | x8 | x8 | x6 || x2 | x8 | x8 | x8 | x8 | x8 | x A,A,A, x4 | %16
 C2 G,G, x4 | x6 |] %18

